fs/folder_arrow_up_48_filled.svg

<svg viewBox="0 0 48 48" fill="none" xmlns="http://www.w3.org/2000/svg" height="1em" width="1em">
  <path d="M40.25 12.5C42.2543 12.5 43.8913 14.0724 43.9948 16.0508L44 16.25L44.0009 23.62C41.665 21.3779 38.4934 20 35 20C27.8203 20 22 25.8203 22 33C22 35.1646 22.5291 37.2057 23.4649 39.0009L7.75 39C5.74574 39 4.10873 37.4276 4.0052 35.4492L4 35.25V18.999L17.8036 19L18.0297 18.9932C19.0049 18.9344 19.9192 18.4968 20.5769 17.7743L20.724 17.6025L24.833 12.5H40.25ZM17.0607 9C17.8933 9 18.7 9.27703 19.3552 9.78393L19.5301 9.92784L21.974 12.066L18.7771 16.0342L18.6826 16.1388C18.4832 16.336 18.223 16.4605 17.9443 16.4921L17.8036 16.5L4 16.499V12.75C4 10.7457 5.57236 9.10873 7.55084 9.0052L7.75 9H17.0607ZM46 33C46 39.0751 41.0751 44 35 44C28.9249 44 24 39.0751 24 33C24 26.9249 28.9249 22 35 22C41.0751 22 46 26.9249 46 33ZM35 25C34.7348 25 34.4804 25.1054 34.2929 25.2929L29.2929 30.2929C28.9024 30.6834 28.9024 31.3166 29.2929 31.7071C29.6834 32.0976 30.3166 32.0976 30.7071 31.7071L34 28.4142V40C34 40.5523 34.4477 41 35 41C35.5523 41 36 40.5523 36 40V28.4142L39.2929 31.7071C39.6834 32.0976 40.3166 32.0976 40.7071 31.7071C41.0976 31.3166 41.0976 30.6834 40.7071 30.2929L35.7071 25.2929C35.5196 25.1054 35.2652 25 35 25Z" fill="#212121"/>
</svg>

<svg viewBox="0 0 48 48" fill="none" xmlns="http://www.w3.org/2000/svg" height="1em" width="1em">
  <path d="M40.25 12.5a3.75 3.75 0 0 1 3.745 3.55l.005.2v7.37A12.956 12.956 0 0 0 35 20c-7.18 0-13 5.82-13 13 0 2.165.53 4.206 1.465 6H7.75a3.75 3.75 0 0 1-3.745-3.55L4 35.25V18.999L17.804 19l.226-.007a3.75 3.75 0 0 0 2.547-1.219l.147-.172 4.109-5.102H40.25ZM17.06 9c.833 0 1.64.277 2.295.784l.175.144 2.444 2.138-3.197 3.968-.094.105c-.2.197-.46.322-.739.353l-.14.008L4 16.499V12.75a3.75 3.75 0 0 1 3.55-3.745L7.75 9h9.31ZM46 33c0 6.075-4.925 11-11 11s-11-4.925-11-11 4.925-11 11-11 11 4.925 11 11Zm-11-8a1 1 0 0 0-.707.293l-5 5a1 1 0 0 0 1.414 1.414L34 28.414V40a1 1 0 1 0 2 0V28.414l3.293 3.293a1 1 0 0 0 1.414-1.414l-5-5A1 1 0 0 0 35 25Z" fill="#212121"/>
</svg>
